Gruvbox-Plus-Dark/actions/16/insert-table.svg

<svg xmlns="http://www.w3.org/2000/svg" width="16" height="16" viewBox="0 0 16 16">
 <defs>
  <style id="current-color-scheme" type="text/css">
   .ColorScheme-Text { color:#ebdbb2; } .ColorScheme-Highlight { color:#458588; }
  </style>
 </defs>
 <path style="fill:currentColor" class="ColorScheme-Text" d="M 1 1 L 1 15 L 7 15 L 7 7.0039062 L 15 7.0039062 L 15 1 L 1 1 z M 3 3 L 5 3 L 5 5.0039062 L 3 5.0039062 L 3 3 z M 7 3 L 9 3 L 9 5.0039062 L 7 5.0039062 L 7 3 z M 11 3 L 13 3 L 13 5.0039062 L 11 5.0039062 L 11 3 z M 3 7.0039062 L 5 7.0039062 L 5 9.0039062 L 3 9.0039062 L 3 7.0039062 z M 11 9.0039062 L 11 11.003906 L 9 11.003906 L 9 13.003906 L 11 13.003906 L 11 15.003906 L 13 15.003906 L 13 13.003906 L 15 13.003906 L 15 11.003906 L 13 11.003906 L 13 9.0039062 L 11 9.0039062 z M 3 11.003906 L 5 11.003906 L 5 13 L 3 13 L 3 11.003906 z"/>
</svg>

<svg width="16" height="16" version="1.1" viewBox="0 0 16 16" xmlns="http://www.w3.org/2000/svg">
  <defs>
    <style type="text/css">.ColorScheme-Text { color:#ebdbb2; } .ColorScheme-Highlight { color:#458588; }</style>
  </defs>
  <path class="ColorScheme-Text" d="m1 1v14h6v-7.996h8v-6.004h-14zm2 2h2v2.004h-2v-2.004zm4 0h2v2.004h-2v-2.004zm4 0h2v2.004h-2v-2.004zm-8 4.004h2v2h-2v-2zm8 2v2h-2v2h2v2h2v-2h2v-2h-2v-2h-2zm-8 2h2v1.996h-2v-1.996z" fill="currentColor"/>
</svg>
